X: 1
T: Monty Python's Flying Circus Theme
C: J.P.Sousa
M: 6/8
L: 1/8
K: C
"G7"G3 \
| "C"E2E E^DE | c2G G2E | "Dm"F2E F2G | A3- A2F \
| "G7"D2D D^CD | B2A A2F | "C"E2^D E2F | G3- G2G |
| "C"E2E E^DE | e2c c2G | "D7"^F2d d2d | d3- d2c \
| "G"B2d d^cd | "D7"A2d d^cd | "G"G2^F G2^F | G3 =F3 |
| "C"E^DE A2G | E3 C3 | "F"A,3 "G7"D3 | "C"C3- C3C \
| "G"D^CD B2A | "C"G3 c3 | "G"B3 "D7"A3 | "G"G3- G2G |
| "F"A2A A^GA | "E"B3 B3 | "Am"c2c "G"d2d | "C"e3- "C7"e2e \
| "F"d2c A2F | "C"E3 c3 | "G7"D3 B3 | "C"cz2 |[K:G]
|| "D7"D3 \
 | "G"G2G "D7"FGA | "G"G2G G2D | B2B "D7"ABc | "G"B3- B2B \
 | "C"c2A "D7"F2e | "G"d2c B2d | "C"ded "D7"cBA | "G"G2z ||
